resources/svg/star-circle-o.svg

<svg xmlns="http://www.w3.org/2000/svg" viewBox="0 0 15 15" fill="none"><path d="M7.5 9.80416L7.7419 9.36657C7.59137 9.28336 7.40863 9.28336 7.2581 9.36657L7.5 9.80416ZM5.33677 11L4.8433 10.9195C4.81246 11.1085 4.89227 11.2985 5.0488 11.4087C5.20533 11.519 5.41109 11.5302 5.57867 11.4376L5.33677 11ZM5.75 8.46718L6.24348 8.54769C6.26903 8.39105 6.21871 8.23159 6.10787 8.118L5.75 8.46718ZM4 6.6736L3.92453 6.17933C3.73926 6.20761 3.58537 6.33713 3.52587 6.51485C3.46637 6.69257 3.51124 6.88864 3.64213 7.02278L4 6.6736ZM6.41839 6.30434L6.49385 6.79861C6.6587 6.77345 6.80015 6.66775 6.87101 6.51679L6.41839 6.30434ZM7.5 4L7.95262 3.78755C7.87025 3.61206 7.69386 3.5 7.5 3.5C7.30614 3.5 7.12975 3.61206 7.04738 3.78755L7.5 4ZM8.58161 6.30434L8.12899 6.51679C8.19985 6.66775 8.3413 6.77345 8.50615 6.79861L8.58161 6.30434ZM11 6.6736L11.3579 7.02278C11.4888 6.88864 11.5336 6.69257 11.4741 6.51485C11.4146 6.33713 11.2607 6.20761 11.0755 6.17933L11 6.6736ZM9.25 8.46718L8.89213 8.118C8.78129 8.23159 8.73097 8.39105 8.75652 8.54769L9.25 8.46718ZM9.66323 11L9.42133 11.4376C9.58891 11.5302 9.79467 11.519 9.9512 11.4087C10.1077 11.2985 10.1875 11.1085 10.1567 10.9195L9.66323 11ZM7.2581 9.36657L5.09487 10.5624L5.57867 11.4376L7.7419 10.2417L7.2581 9.36657ZM5.83025 11.0805L6.24348 8.54769L5.25652 8.38667L4.8433 10.9195L5.83025 11.0805ZM6.10787 8.118L4.35787 6.32442L3.64213 7.02278L5.39213 8.81635L6.10787 8.118ZM4.07547 7.16787L6.49385 6.79861L6.34292 5.81007L3.92453 6.17933L4.07547 7.16787ZM6.87101 6.51679L7.95262 4.21245L7.04738 3.78755L5.96577 6.09189L6.87101 6.51679ZM7.04738 4.21245L8.12899 6.51679L9.03423 6.09189L7.95262 3.78755L7.04738 4.21245ZM8.50615 6.79861L10.9245 7.16787L11.0755 6.17933L8.65708 5.81007L8.50615 6.79861ZM10.6421 6.32442L8.89213 8.118L9.60787 8.81635L11.3579 7.02278L10.6421 6.32442ZM8.75652 8.54769L9.16975 11.0805L10.1567 10.9195L9.74348 8.38667L8.75652 8.54769ZM9.90513 10.5624L7.7419 9.36657L7.2581 10.2417L9.42133 11.4376L9.90513 10.5624ZM7.5 14C3.91015 14 1 11.0899 1 7.5H0C0 11.6421 3.35786 15 7.5 15V14ZM14 7.5C14 11.0899 11.0899 14 7.5 14V15C11.6421 15 15 11.6421 15 7.5H14ZM7.5 1C11.0899 1 14 3.91015 14 7.5H15C15 3.35786 11.6421 0 7.5 0V1ZM7.5 0C3.35786 0 0 3.35786 0 7.5H1C1 3.91015 3.91015 1 7.5 1V0Z" fill="black"/></svg>

<svg xmlns="http://www.w3.org/2000/svg" viewBox="0 0 15 15" fill="none"><path d="M7.5 9.804l.242-.437a.5.5 0 00-.484 0l.242.437zM5.337 11l-.494-.08a.5.5 0 00.736.518L5.337 11zm.413-2.533l.493.08a.5.5 0 00-.135-.429l-.358.35zM4 6.674l-.075-.495a.5.5 0 00-.283.844L4 6.673zm2.418-.37l.076.495a.5.5 0 00.377-.282l-.453-.213zM7.5 4l.453-.212a.5.5 0 00-.906 0L7.5 4zm1.082 2.304l-.453.213a.5.5 0 00.377.282l.076-.495zm2.418.37l.358.349a.5.5 0 00-.283-.844L11 6.674zM9.25 8.467l-.358-.349a.5.5 0 00-.135.43l.493-.08zM9.663 11l-.242.438a.5.5 0 00.736-.519L9.663 11zM7.258 9.367l-2.163 1.195.484.876 2.163-1.196-.484-.875zM5.83 11.08l.413-2.532-.986-.161-.414 2.532.987.162zm.278-2.962l-1.75-1.794-.716.699 1.75 1.793.716-.698zm-2.033-.95l2.419-.37-.151-.988-2.418.37.15.988zm2.796-.651l1.082-2.305-.906-.424-1.081 2.304.905.425zm.176-2.305L8.13 6.517l.905-.425-1.081-2.304-.906.424zM8.507 6.8l2.418.369.15-.989-2.418-.369-.15.989zm2.135-.475l-1.75 1.794.716.698 1.75-1.793-.716-.699zM8.757 8.548l.413 2.533.987-.162-.414-2.532-.986.16zm1.148 2.014L7.742 9.367l-.484.875 2.163 1.196.484-.876zM7.5 14A6.5 6.5 0 011 7.5H0A7.5 7.5 0 007.5 15v-1zM14 7.5A6.5 6.5 0 017.5 14v1A7.5 7.5 0 0015 7.5h-1zM7.5 1A6.5 6.5 0 0114 7.5h1A7.5 7.5 0 007.5 0v1zm0-1A7.5 7.5 0 000 7.5h1A6.5 6.5 0 017.5 1V0z" fill="currentColor"/></svg>
